assets/img/other/euphoria_patches_banner.svg

<svg xmlns="http://www.w3.org/2000/svg" shape-rendering="crispEdges" width="800" height="232" viewBox="0 -0.5 100 29"><path stroke="#352b1b" d="M69 0h3m-3 1h1m1 0h2m13 0h4M67 2h4m1 0h2m1 0h5m4 0h3m2 0h10M66 3h2m5 0h3m3 0h6m1 0h1m2 0h1m4 0h2m2 0h1M66 4h1m1 0h3m2 0h2m3 0h3m2 0h2m1 0h5m2 0h2m3 0h1M66 5h2m1 0h1m1 0h1m3 0h3m3 0h2m3 0h2m3 0h2m2 0h1m2 0h1M67 6h2m1 0h2m1 0h2m1 0h1m1 0h2m1 0h1m1 0h2m1 0h1m1 0h2m1 0h1m1 0h2m1 0h3M68 7h2m1 0h1m1 0h2m1 0h1m1 0h2m1 0h1m1 0h2m1 0h1m1 0h1m1 0h2m1 0h3m1 0h2M66 8h4m1 0h1m1 0h2m1 0h1m1 0h2m1 0h1m1 0h2m1 0h1m1 0h4m1 0h4m1 0h1M66 9h1m3 0h2m1 0h3m1 0h1m2 0h1m1 0h1m2 0h1m1 0h1m3 0h1m1 0h2m2 0h2m-33 1h8m1 0h23"/><path stroke="#2f222f" d="M1 1h5m17 0h3m21 0h3M0 2h2m3 0h2m16 0h1m1 0h1m21 0h1m1 0h1M0 3h1m1 0h3m1 0h11m1 0h6m1 0h11m1 0h11m1 0h6m1 0h8M0 4h1m1 0h1m1 0h4m2 0h2m2 0h1m1 0h3m3 0h2m1 0h2m3 0h1m2 0h1m1 0h3m3 0h1m3 0h2m3 0h1m3 0h3m2 0h1m1 0h1m1 0h1M0 5h1m1 0h1m3 0h1m1 0h2m1 0h1m1 0h1m1 0h1m1 0h2m1 0h2m1 0h1m1 0h1m1 0h2m1 0h1m1 0h1m1 0h1m1 0h1m1 0h2m1 0h1m1 0h2m1 0h2m1 0h1m1 0h2m1 0h2m1 0h3m1 0h1m1 0h1M0 6h1m1 0h1m1 0h3m1 0h2m1 0h1m1 0h1m1 0h1m1 0h2m1 0h2m1 0h1m1 0h1m1 0h1m1 0h2m1 0h1m1 0h1m1 0h1m1 0h1m1 0h2m1 0h2m1 0h2m1 0h1m1 0h2m1 0h2m1 0h1m1 0h1m1 0h1m1 0h1M0 7h1m1 0h3m1 0h1m1 0h2m1 0h1m1 0h1m1 0h1m1 0h2m3 0h2m1 0h1m1 0h4m1 0h1m1 0h1m1 0h1m1 0h4m1 0h2m1 0h2m1 0h1m1 0h2m1 0h2m1 0h1m1 0h2m1 0h2M0 8h2m3 0h3m2 0h2m1 0h4m1 0h1m1 0h4m1 0h2m3 0h1m1 0h4m1 0h1m3 0h1m1 0h3m1 0h2m1 0h1m2 0h1m1 0h1m1 0h1m1 0h2m1 0h1M1 9h5m1 0h7m2 0h3m1 0h1m2 0h10m2 0h9m1 0h13m1 0h1m1 0h2m-45 1h3m38 0h3"/><path stroke="#e39652" d="M70 1h1m0 1h1m-1 1h2m-2 1h1m-2 1h1"/><path stroke="#fa8afa" d="M2 2h1M1 7h1m1 1h2"/><path stroke="#c83ce5" d="M3 2h2m0 5h1M2 8h1"/><path stroke="#f9f5f5" d="M24 2h1m23 0h1M24 3h1m23 0h1M8 4h2m2 0h2m10 0h1m9 0h1m3 0h3m1 0h2m3 0h3m1 0h3M7 5h1m2 0h1m1 0h1m1 0h1m9 0h1m8 0h1m1 0h1m1 0h1m2 0h1m1 0h1m7 0h1m2 0h1M7 6h1m2 0h1m1 0h1m1 0h1m4 0h1m2 0h1m3 0h1m6 0h1m1 0h1m1 0h1m1 0h1m2 0h1m7 0h1m5 0h1m5 0h1M10 7h1m1 0h1m1 0h1m1 0h1m2 0h3m4 0h1m4 0h1m1 0h1m1 0h1m6 0h1m7 0h1m5 0h1m4 0h1M12 8h1m4 0h1m1 0h1m7 0h3m1 0h1m4 0h1m5 0h1m13 0h1m4 0h1M19 9h1m40 0h1m-49 7h2m8 0h2m-11 1h2m6 0h2m-11 1h1m10 0h1m34 1h1m8 0h1m-11 1h1m2 0h1m13 0h1m-13 1h1m1 0h1m6 0h1m3 0h1m5 0h1m4 0h1m-30 1h2m2 0h1m5 0h1m6 0h1m2 0h1m4 0h1m1 0h1m-21 1h1m4 0h1m9 0h1m-23 1h1m3 0h1m5 0h1m6 0h1m2 0h1m8 0h1m-24 1h1m4 0h1m2 0h1m9 0h1m2 0h1"/><path stroke="#5d2d5f" d="M26 2h1m23 0h1m13 2h1m-1 1h1m-7 1h1m5 0h1m-7 1h1m5 0h1m-7 1h1m4 0h2M14 9h2m5 0h2m10 0h2m9 0h1m13 0h1m4 0h1M8 10h7m2 0h1m3 0h1m2 0h10m2 0h9m1 0h4m4 0h5m3 0h2m-45 1h3m38 0h3"/><path stroke="#fff28d" d="M87 2h2m-2 1h2"/><path stroke="#7f2ed9" d="M1 3h1m3 0h1M1 4h1M1 5h1M1 6h1"/><path stroke="#ffebb0" d="M68 3h3m-4 1h1m4 0h1m-1 1h2m4 0h1m4 0h1m4 0h3m5 0h2M72 6h1m4 0h1m4 0h1m7 0h1m1 0h1m2 0h1M77 7h1m4 0h1m6 0h1m-8 1h1"/><path stroke="#f8f5f2" d="M76 3h3m13 0h1m3 0h2M75 4h1m5 0h1m9 0h1m3 0h1"/><path stroke="#ffdc8c" d="M85 3h1m-1 1h1M68 5h1m0 1h1m17 0h1M70 7h1m25 0h1M75 8h1m1 0h1m2 0h1m-5 1h1m1 0h2m1 0h1m1 0h2m1 0h1m3 0h1m1 0h1"/><path stroke="#ded9d5" d="M90 3h2m1 0h1M76 4h2m4 0h1m9 0h1m3 0h2"/><path stroke="#4b3d1e" d="M99 3h1m-1 1h1m-1 1h1m-1 1h1m-1 1h1m-1 1h1m-1 1h1m-26 1h1m23 0h2m-33 1h8m1 0h23"/><path stroke="#492468" d="M3 4h1M3 5h1m1 0h1M3 6h1m2 3h1m-5 1h5"/><path stroke="#dfd3e1" d="M15 4h1m3 0h3m5 0h3m1 0h2m11 0h1m12 0h2m1 0h1m1 0h1M16 5h1m2 0h1m2 0h1m3 0h1m2 0h1m1 0h1m13 0h1m2 0h1m7 0h1m3 0h1m1 0h1M16 6h1m7 0h1m3 0h1m2 0h1m13 0h1m2 0h1m4 0h1m6 0h1M7 7h1m16 0h1m12 0h1m7 0h1m2 0h1m4 0h1M8 8h2m14 0h1m13 0h3m5 0h1m2 0h1m1 0h2m1 0h1M13 18h1m8 0h1m-11 1h1m10 0h1"/><path stroke="#f3c169" d="M74 5h1m4 0h2m3 0h2m7 0h2M75 6h1m4 0h1m4 0h1M72 7h1m2 0h1m4 0h1m4 0h1m1 0h1m4 0h1M70 8h1m1 0h1m12 0h1m1 0h1m4 0h1m4 0h1M67 9h3m2 0h1m15 0h2m5 0h2"/><path stroke="#22142b" d="M50 10h4m-5 1h2m2 0h2m-6 1h1m1 0h2m1 0h1m-6 1h1m1 0h1m2 0h1m-6 1h2m2 0h3m-7 1h1m1 0h1m1 0h1m1 0h1m-7 1h1m1 0h2m1 0h2m-7 1h2m4 0h1m-3 1h2"/><path stroke="#f6d6ff" d="M51 11h2m-3 1h1m2 0h1m-2 1h2"/><path stroke="#382247" d="M55 12h1m-1 1h1m0 2h1m-1 1h1m-3 3h1"/><path stroke="#e0b2ff" d="M50 13h1m0 1h2m-3 1h1m1 0h1m0 1h1"/><path stroke="#262614" d="M29 14h5m-23 1h4m6 0h4m4 0h1m1 0h1m1 0h1m-23 1h1m2 0h8m2 0h1m4 0h2m1 0h2m-23 1h2m2 0h1m4 0h1m2 0h2m4 0h1m1 0h1m1 0h1m-23 1h1m2 0h8m2 0h29m-42 1h1m1 0h3m4 0h3m1 0h2m4 0h1m1 0h1m11 0h1m1 0h1m5 0h1m-42 1h3m1 0h1m1 0h14m1 0h21m-38 1h1m1 0h4m1 0h2m1 0h1m3 0h2m3 0h3m2 0h3m2 0h1m1 0h2m3 0h1m-37 1h1m3 0h2m1 0h2m1 0h1m1 0h2m1 0h1m1 0h2m1 0h1m1 0h2m1 0h1m1 0h3m1 0h1m1 0h2m1 0h1m-37 1h1m1 0h4m1 0h2m1 0h1m1 0h2m1 0h1m1 0h2m1 0h1m1 0h2m1 0h1m1 0h1m1 0h1m1 0h1m1 0h2m1 0h1m-37 1h1m1 0h4m1 0h2m1 0h1m3 0h2m1 0h2m1 0h1m1 0h2m1 0h1m1 0h1m1 0h1m1 0h1m1 0h2m1 0h2m-38 1h1m4 0h2m3 0h1m1 0h4m1 0h3m1 0h1m2 0h2m1 0h1m1 0h2m1 0h1m2 0h1m1 0h1m-38 1h11m1 0h1m2 0h3m1 0h9m2 0h8m-28 1h3"/><path stroke="#f3f588" d="M30 15h1m1 0h1m-2 1h1m-16 1h4m10 0h1m1 0h1"/><path stroke="#474727" d="M34 15h1m-1 1h1m-1 1h1"/><path stroke="#c489ec" d="M54 15h1m-5 1h1m0 1h4"/><path stroke="#402544" d="M25 16h1m-1 1h1m-12 3h1m-3 1h3"/><path stroke="#281f1d" d="M56 17h4m-5 1h2m2 0h2m5 0h3m4 0h3m1 0h3m-25 1h1m4 0h2m4 0h1m1 0h1m4 0h1m1 0h3m1 0h2m-26 1h1m2 0h2m1 0h6m1 0h6m1 0h2m3 0h8m-33 1h2m1 0h2m1 0h1m3 0h1m3 0h1m3 0h1m3 0h1m1 0h1m3 0h2m2 0h1m-32 1h1m3 0h1m1 0h2m1 0h2m1 0h1m1 0h4m1 0h2m1 0h1m1 0h2m1 0h1m1 0h3m-32 1h1m1 0h3m1 0h2m1 0h2m1 0h1m1 0h4m1 0h2m1 0h1m1 0h1m1 0h3m1 0h2m-33 1h2m1 0h1m1 0h1m1 0h2m1 0h2m1 0h1m1 0h2m1 0h1m1 0h2m1 0h1m1 0h6m1 0h1m-33 1h1m1 0h2m1 0h2m2 0h1m1 0h2m1 0h1m2 0h2m1 0h3m1 0h1m3 0h1m2 0h2m-33 1h3m3 0h15m1 0h10"/><path stroke="#dbbb86" d="M57 18h1m-1 1h1"/><path stroke="#edc192" d="M58 18h1m-3 2h1"/><path stroke="#fba0db" d="M16 19h4m-4 1h1"/><path stroke="#c24cf2" d="M26 19h3m19 2h3m-4 1h1m2 0h1m-4 1h1m2 0h1m-4 1h1m2 0h1m-3 1h2m1 0h1"/><path stroke="#6c5ff3" d="M29 19h1m3 0h1m11 0h1m-1 2h1m-1 1h1m-1 1h1m-1 1h1m0 1h1"/><path stroke="#d9f24d" d="M31 19h1m8 0h3m-12 1h1m-1 1h3m-3 1h1m2 0h1m-4 1h1m2 0h1m-4 1h1m2 0h1m-4 1h1m3 0h1"/><path stroke="#5de1e8" d="M34 19h3m5 2h2m-3 1h1m-1 1h1m-1 1h1m-1 1h1"/><path stroke="#56eb5e" d="M37 19h3m-3 2h2m-3 1h1m2 0h1m-4 1h1m2 0h1m-4 1h1m2 0h1m-3 1h2"/><path stroke="#f29f40" d="M43 19h1m3 0h2m-23 2h3m-3 1h1m2 0h1m-4 1h1m2 0h1m-4 1h3m-3 1h1m-1 1h1"/><path stroke="#f74266" d="M49 19h3m-31 2h1m2 0h1m-4 1h1m2 0h1m-4 1h1m2 0h1m-4 1h1m2 0h1m-3 1h3"/><path stroke="#44274f" d="M53 19h1m-1 1h1m-2 1h2m-2 1h1m-1 1h1m0 2h1m-1 1h1m-7 1h7"/><path stroke="#cda96c" d="M56 19h1"/><path stroke="#e0caca" d="M59 19h1m14 0h1m-8 1h1m-11 1h1m2 0h1m2 0h1m2 0h3m1 0h1m1 0h1m1 0h1m1 0h1m3 0h1m1 0h1m2 0h1m-27 1h1m4 0h1m4 0h1m9 0h1m-23 1h1m3 0h1m5 0h1m6 0h1m2 0h1m3 0h1m3 0h1m-22 1h1m4 0h1m2 0h1m6 0h1m-24 1h1m5 0h1m2 0h1m4 0h1m3 0h1m3 0h1m1 0h1m1 0h1m2 0h1"/><path stroke="#443825" d="M69 19h1m18 2h1m-1 1h1m-1 1h1m-30 1h1m28 0h1m-30 1h1m28 0h1m-31 1h2m16 0h1m10 0h2m-33 1h3m3 0h15m1 0h10"/><path stroke="#85e391" d="M78 19h1m-2 1h3m-2 1h1"/><path stroke="#71ea84" d="M16 21h1m-1 1h3m-3 1h1"/><path stroke="#244243" d="M43 23h1m-1 1h1m-1 1h1m-1 1h1m-3 1h3"/><path stroke="#e9dd55" d="M16 24h1m-1 1h4"/><path stroke="#543f27" d="M28 26h2m-2 1h1m-3 1h3"/><path stroke="#4d532c" d="M33 26h1m-3 1h3m1 0h1"/><path stroke="#4c4926" d="M16 27h5"/><path stroke="#4e262e" d="M21 27h4"/><path stroke="#28492a" d="M36 27h5"/><path stroke="#413b77" d="M46 27h1"/></svg>

<svg xmlns="http://www.w3.org/2000/svg" viewBox="0 -0.5 100 29" shape-rendering="crispEdges" width="800" height="232">
<metadata>Made with Pixels to Svg https://codepen.io/shshaw/pen/XbxvNj</metadata>
<path stroke="#352b1b" d="M69 0h3M69 1h1M71 1h2M86 1h4M67 2h4M72 2h2M75 2h5M84 2h3M89 2h10M66 3h2M73 3h3M79 3h6M86 3h1M89 3h1M94 3h2M98 3h1M66 4h1M68 4h3M73 4h2M78 4h3M83 4h2M86 4h5M93 4h2M98 4h1M66 5h2M69 5h1M71 5h1M75 5h3M81 5h2M86 5h2M91 5h2M95 5h1M98 5h1M67 6h2M70 6h2M73 6h2M76 6h1M78 6h2M81 6h1M83 6h2M86 6h1M88 6h2M91 6h1M93 6h2M96 6h3M68 7h2M71 7h1M73 7h2M76 7h1M78 7h2M81 7h1M83 7h2M86 7h1M88 7h1M90 7h2M93 7h3M97 7h2M66 8h4M71 8h1M73 8h2M76 8h1M78 8h2M81 8h1M83 8h2M86 8h1M88 8h4M93 8h4M98 8h1M66 9h1M70 9h2M73 9h3M77 9h1M80 9h1M82 9h1M85 9h1M87 9h1M91 9h1M93 9h2M97 9h2M66 10h8M75 10h23" />
<path stroke="#2f222f" d="M1 1h5M23 1h3M47 1h3M0 2h2M5 2h2M23 2h1M25 2h1M47 2h1M49 2h1M0 3h1M2 3h3M6 3h11M18 3h6M25 3h11M37 3h11M49 3h6M56 3h8M0 4h1M2 4h1M4 4h4M10 4h2M14 4h1M16 4h3M22 4h2M25 4h2M30 4h1M33 4h1M35 4h3M41 4h1M45 4h2M50 4h1M54 4h3M59 4h1M61 4h1M63 4h1M0 5h1M2 5h1M6 5h1M8 5h2M11 5h1M13 5h1M15 5h1M17 5h2M20 5h2M23 5h1M25 5h1M27 5h2M30 5h1M32 5h1M34 5h1M36 5h1M38 5h2M41 5h1M43 5h2M46 5h2M49 5h1M51 5h2M54 5h2M57 5h3M61 5h1M63 5h1M0 6h1M2 6h1M4 6h3M8 6h2M11 6h1M13 6h1M15 6h1M17 6h2M20 6h2M23 6h1M25 6h1M27 6h1M29 6h2M32 6h1M34 6h1M36 6h1M38 6h1M40 6h2M43 6h2M46 6h2M49 6h1M51 6h2M54 6h2M57 6h1M59 6h1M61 6h1M63 6h1M0 7h1M2 7h3M6 7h1M8 7h2M11 7h1M13 7h1M15 7h1M17 7h2M22 7h2M25 7h1M27 7h4M32 7h1M34 7h1M36 7h1M38 7h4M43 7h2M46 7h2M49 7h1M51 7h2M54 7h2M57 7h1M59 7h2M62 7h2M0 8h2M5 8h3M10 8h2M13 8h4M18 8h1M20 8h4M25 8h2M30 8h1M32 8h4M37 8h1M41 8h1M43 8h3M47 8h2M50 8h1M53 8h1M55 8h1M57 8h1M59 8h2M62 8h1M1 9h5M7 9h7M16 9h3M20 9h1M23 9h10M35 9h9M45 9h13M59 9h1M61 9h2M18 10h3M59 10h3" />
<path stroke="#e39652" d="M70 1h1M71 2h1M71 3h2M71 4h1M70 5h1" />
<path stroke="#fa8afa" d="M2 2h1M1 7h1M3 8h2" />
<path stroke="#c83ce5" d="M3 2h2M5 7h1M2 8h1" />
<path stroke="#f9f5f5" d="M24 2h1M48 2h1M24 3h1M48 3h1M8 4h2M12 4h2M24 4h1M34 4h1M38 4h3M42 4h2M47 4h3M51 4h3M7 5h1M10 5h1M12 5h1M14 5h1M24 5h1M33 5h1M35 5h1M37 5h1M40 5h1M42 5h1M50 5h1M53 5h1M7 6h1M10 6h1M12 6h1M14 6h1M19 6h1M22 6h1M26 6h1M33 6h1M35 6h1M37 6h1M39 6h1M42 6h1M50 6h1M56 6h1M62 6h1M10 7h1M12 7h1M14 7h1M16 7h1M19 7h3M26 7h1M31 7h1M33 7h1M35 7h1M42 7h1M50 7h1M56 7h1M61 7h1M12 8h1M17 8h1M19 8h1M27 8h3M31 8h1M36 8h1M42 8h1M56 8h1M61 8h1M19 9h1M60 9h1M12 16h2M22 16h2M13 17h2M21 17h2M12 18h1M23 18h1M58 19h1M67 19h1M57 20h1M60 20h1M74 20h1M62 21h1M64 21h1M71 21h1M75 21h1M81 21h1M86 21h1M57 22h2M61 22h1M67 22h1M74 22h1M77 22h1M82 22h1M84 22h1M64 23h1M69 23h1M79 23h1M57 24h1M61 24h1M67 24h1M74 24h1M77 24h1M86 24h1M63 25h1M68 25h1M71 25h1M81 25h1M84 25h1" />
<path stroke="#5d2d5f" d="M26 2h1M50 2h1M64 4h1M64 5h1M58 6h1M64 6h1M58 7h1M64 7h1M58 8h1M63 8h2M14 9h2M21 9h2M33 9h2M44 9h1M58 9h1M63 9h1M8 10h7M17 10h1M21 10h1M24 10h10M36 10h9M46 10h4M54 10h5M62 10h2M19 11h3M60 11h3" />
<path stroke="#fff28d" d="M87 2h2M87 3h2" />
<path stroke="#7f2ed9" d="M1 3h1M5 3h1M1 4h1M1 5h1M1 6h1" />
<path stroke="#ffebb0" d="M68 3h3M67 4h1M72 4h1M72 5h2M78 5h1M83 5h1M88 5h3M96 5h2M72 6h1M77 6h1M82 6h1M90 6h1M92 6h1M95 6h1M77 7h1M82 7h1M89 7h1M82 8h1" />
<path stroke="#f8f5f2" d="M76 3h3M92 3h1M96 3h2M75 4h1M81 4h1M91 4h1M95 4h1" />
<path stroke="#ffdc8c" d="M85 3h1M85 4h1M68 5h1M69 6h1M87 6h1M70 7h1M96 7h1M75 8h1M77 8h1M80 8h1M76 9h1M78 9h2M81 9h1M83 9h2M86 9h1M90 9h1M92 9h1" />
<path stroke="#ded9d5" d="M90 3h2M93 3h1M76 4h2M82 4h1M92 4h1M96 4h2" />
<path stroke="#4b3d1e" d="M99 3h1M99 4h1M99 5h1M99 6h1M99 7h1M99 8h1M99 9h1M74 10h1M98 10h2M67 11h8M76 11h23" />
<path stroke="#492468" d="M3 4h1M3 5h1M5 5h1M3 6h1M6 9h1M2 10h5" />
<path stroke="#dfd3e1" d="M15 4h1M19 4h3M27 4h3M31 4h2M44 4h1M57 4h2M60 4h1M62 4h1M16 5h1M19 5h1M22 5h1M26 5h1M29 5h1M31 5h1M45 5h1M48 5h1M56 5h1M60 5h1M62 5h1M16 6h1M24 6h1M28 6h1M31 6h1M45 6h1M48 6h1M53 6h1M60 6h1M7 7h1M24 7h1M37 7h1M45 7h1M48 7h1M53 7h1M8 8h2M24 8h1M38 8h3M46 8h1M49 8h1M51 8h2M54 8h1M13 18h1M22 18h1M12 19h1M23 19h1" />
<path stroke="#f3c169" d="M74 5h1M79 5h2M84 5h2M93 5h2M75 6h1M80 6h1M85 6h1M72 7h1M75 7h1M80 7h1M85 7h1M87 7h1M92 7h1M70 8h1M72 8h1M85 8h1M87 8h1M92 8h1M97 8h1M67 9h3M72 9h1M88 9h2M95 9h2" />
<path stroke="#22142b" d="M50 10h4M49 11h2M53 11h2M49 12h1M51 12h2M54 12h1M49 13h1M51 13h1M54 13h1M49 14h2M53 14h3M49 15h1M51 15h1M53 15h1M55 15h1M49 16h1M51 16h2M54 16h2M49 17h2M55 17h1M53 18h2" />
<path stroke="#f6d6ff" d="M51 11h2M50 12h1M53 12h1M52 13h2" />
<path stroke="#382247" d="M55 12h1M55 13h1M56 15h1M56 16h1M54 19h1" />
<path stroke="#e0b2ff" d="M50 13h1M51 14h2M50 15h1M52 15h1M53 16h1" />
<path stroke="#262614" d="M29 14h5M11 15h4M21 15h4M29 15h1M31 15h1M33 15h1M11 16h1M14 16h8M24 16h1M29 16h2M32 16h2M11 17h2M15 17h1M20 17h1M23 17h2M29 17h1M31 17h1M33 17h1M11 18h1M14 18h8M24 18h29M11 19h1M13 19h3M20 19h3M24 19h2M30 19h1M32 19h1M44 19h1M46 19h1M52 19h1M11 20h3M15 20h1M17 20h14M32 20h21M15 21h1M17 21h4M22 21h2M25 21h1M29 21h2M34 21h3M39 21h3M44 21h1M46 21h2M51 21h1M15 22h1M19 22h2M22 22h2M25 22h1M27 22h2M30 22h1M32 22h2M35 22h1M37 22h2M40 22h1M42 22h3M46 22h1M48 22h2M51 22h1M15 23h1M17 23h4M22 23h2M25 23h1M27 23h2M30 23h1M32 23h2M35 23h1M37 23h2M40 23h1M42 23h1M44 23h1M46 23h1M48 23h2M51 23h1M15 24h1M17 24h4M22 24h2M25 24h1M29 24h2M32 24h2M35 24h1M37 24h2M40 24h1M42 24h1M44 24h1M46 24h1M48 24h2M51 24h2M15 25h1M20 25h2M25 25h1M27 25h4M32 25h3M36 25h1M39 25h2M42 25h1M44 25h2M47 25h1M50 25h1M52 25h1M15 26h11M27 26h1M30 26h3M34 26h9M45 26h8M25 27h3" />
<path stroke="#f3f588" d="M30 15h1M32 15h1M31 16h1M16 17h4M30 17h1M32 17h1" />
<path stroke="#474727" d="M34 15h1M34 16h1M34 17h1" />
<path stroke="#c489ec" d="M54 15h1M50 16h1M51 17h4" />
<path stroke="#402544" d="M25 16h1M25 17h1M14 20h1M12 21h3" />
<path stroke="#281f1d" d="M56 17h4M55 18h2M59 18h2M66 18h3M73 18h3M77 18h3M55 19h1M60 19h2M66 19h1M68 19h1M73 19h1M75 19h3M79 19h2M55 20h1M58 20h2M61 20h6M68 20h6M75 20h2M80 20h8M55 21h2M58 21h2M61 21h1M65 21h1M69 21h1M73 21h1M77 21h1M79 21h1M83 21h2M87 21h1M56 22h1M60 22h1M62 22h2M65 22h2M68 22h1M70 22h4M75 22h2M78 22h1M80 22h2M83 22h1M85 22h3M56 23h1M58 23h3M62 23h2M65 23h2M68 23h1M70 23h4M75 23h2M78 23h1M80 23h1M82 23h3M86 23h2M55 24h2M58 24h1M60 24h1M62 24h2M65 24h2M68 24h1M70 24h2M73 24h1M75 24h2M78 24h1M80 24h6M87 24h1M55 25h1M57 25h2M60 25h2M64 25h1M66 25h2M69 25h1M72 25h2M75 25h3M79 25h1M83 25h1M86 25h2M55 26h3M61 26h15M77 26h10" />
<path stroke="#dbbb86" d="M57 18h1M57 19h1" />
<path stroke="#edc192" d="M58 18h1M56 20h1" />
<path stroke="#fba0db" d="M16 19h4M16 20h1" />
<path stroke="#c24cf2" d="M26 19h3M48 21h3M47 22h1M50 22h1M47 23h1M50 23h1M47 24h1M50 24h1M48 25h2M51 25h1" />
<path stroke="#6c5ff3" d="M29 19h1M33 19h1M45 19h1M45 21h1M45 22h1M45 23h1M45 24h1M46 25h1" />
<path stroke="#d9f24d" d="M31 19h1M40 19h3M31 20h1M31 21h3M31 22h1M34 22h1M31 23h1M34 23h1M31 24h1M34 24h1M31 25h1M35 25h1" />
<path stroke="#5de1e8" d="M34 19h3M42 21h2M41 22h1M41 23h1M41 24h1M41 25h1" />
<path stroke="#56eb5e" d="M37 19h3M37 21h2M36 22h1M39 22h1M36 23h1M39 23h1M36 24h1M39 24h1M37 25h2" />
<path stroke="#f29f40" d="M43 19h1M47 19h2M26 21h3M26 22h1M29 22h1M26 23h1M29 23h1M26 24h3M26 25h1M26 26h1" />
<path stroke="#f74266" d="M49 19h3M21 21h1M24 21h1M21 22h1M24 22h1M21 23h1M24 23h1M21 24h1M24 24h1M22 25h3" />
<path stroke="#44274f" d="M53 19h1M53 20h1M52 21h2M52 22h1M52 23h1M53 25h1M53 26h1M47 27h7" />
<path stroke="#cda96c" d="M56 19h1" />
<path stroke="#e0caca" d="M59 19h1M74 19h1M67 20h1M57 21h1M60 21h1M63 21h1M66 21h3M70 21h1M72 21h1M74 21h1M76 21h1M80 21h1M82 21h1M85 21h1M59 22h1M64 22h1M69 22h1M79 22h1M57 23h1M61 23h1M67 23h1M74 23h1M77 23h1M81 23h1M85 23h1M64 24h1M69 24h1M72 24h1M79 24h1M56 25h1M62 25h1M65 25h1M70 25h1M74 25h1M78 25h1M80 25h1M82 25h1M85 25h1" />
<path stroke="#443825" d="M69 19h1M88 21h1M88 22h1M88 23h1M59 24h1M88 24h1M59 25h1M88 25h1M58 26h2M76 26h1M87 26h2M56 27h3M62 27h15M78 27h10" />
<path stroke="#85e391" d="M78 19h1M77 20h3M78 21h1" />
<path stroke="#71ea84" d="M16 21h1M16 22h3M16 23h1" />
<path stroke="#244243" d="M43 23h1M43 24h1M43 25h1M43 26h1M41 27h3" />
<path stroke="#e9dd55" d="M16 24h1M16 25h4" />
<path stroke="#543f27" d="M28 26h2M28 27h1M26 28h3" />
<path stroke="#4d532c" d="M33 26h1M31 27h3M35 27h1" />
<path stroke="#4c4926" d="M16 27h5" />
<path stroke="#4e262e" d="M21 27h4" />
<path stroke="#28492a" d="M36 27h5" />
<path stroke="#413b77" d="M46 27h1" />
</svg>
